X: 25462
T: Marche Du Verner
R: slide
M: 12/8
K: Dmajor
M:4/4
f>e|d2 A>G Fd c/c/d|e2 B2- B2- Bd|c>c c>B A>A B>c|d2 f2 d2 f>e|
d2 d2- dd c/c/d|e2 B2- B2 d2|c2 c>B A>A Bc|d2 f2 d2||

